!!!OTL: Maedchen und Hasel Et wull en Maeke Schwin utjoge
!!!ARE: Europa, Mitteleuropa, Deutschland / UdSSR, Ostpreussen, Kr. Friedland,
!!    Markienen
!!!YOR: 6, S. 244
!!    1912 aufgezeichnet
!!!SCT: Q0138B
!!!YEM: Copyright 1995, estate of Helmut Schaffrath.
**kern
*ICvox
*Ivox
*M3/4
*k[f#]
*G:
{8d
=1
8d
8g
4.g
8e
=2
8g
8f#
8d
8d
8r}
{8d
=3
8d
8f#
4a
4e
=4
4e
4d
8r}
{8d
=5
8d
8cc
4.cc
8a
=6
8cc
8b
4g
8r}
{8b
=7
8b
16a
16a
4.e
8a
=8
4a
4g
8r}
{8d
=9
8d
8cc
4.cc
8a
=10
8cc
8b
4g
8r}
{8b
=11
8b
16a
16a
4.e
8a
=12
4a
4g
8r}
==
!!!AGN: Ballade, verlorene Unschuld, Moral
!!!ONB: ESAC (Essen Associative Code) Database: BALLADE
!!!AMT: simple triple
!!!AIN: vox
!!!EED: Helmut Schaffrath
!!!EEV: 1.0
*-
